usr/share/icons/biglinux-icons-material/scalable/apps/io.github.arunsivaramanneo.GPUViewer.svg

<svg xmlns="http://www.w3.org/2000/svg" xml:space="preserve" width="24" height="24" fill="none"><defs><radialGradient id="a" cx=".179" cy="-1.748" r="1" fx=".179" fy="-1.748" gradientTransform="matrix(.23202 20.32265 -16.50017 .18838 -19.89 -2.572)" gradientUnits="userSpaceOnUse" spreadMethod="pad"><stop offset="0" style="stop-opacity:1;stop-color:#80b3ff"/><stop offset="1" style="stop-opacity:1;stop-color:#003380"/></radialGradient><radialGradient id="b" cx=".179" cy="-1.748" r="1" fx=".179" fy="-1.748" gradientTransform="matrix(.23202 20.32265 -16.50017 .18838 -19.89 -2.572)" gradientUnits="userSpaceOnUse" spreadMethod="pad"><stop offset="0" style="stop-opacity:1;stop-color:#d5ffe6"/><stop offset="1" style="stop-opacity:1;stop-color:#00d455"/></radialGradient></defs><path d="M9 .75C1.5.75.75 4.5.75 9 .75 15 3 17.25 9 17.25S17.25 15 17.25 9C17.25 4.5 16.5.75 9 .75Z" style="fill:url(#a);stroke:none" transform="scale(1.33333)"/><path d="M9 .75C1.5.75.75 4.5.75 9 .75 15 3 17.25 9 17.25S17.25 15 17.25 9C17.25 4.5 16.5.75 9 .75Z" style="fill:url(#b);stroke:none" transform="scale(1.33333)"/><path d="M4.312 13.18a.19.19 0 0 1-.078-.067l-.023-.047v-.871h-.699l-.055-.062-.059-.059-.007-.781c-.004-.43 0-.82.007-.875a.362.362 0 0 1 .047-.141l.032-.043.359-.011.363-.012.004-.207.008-.203-.711-.016-.043-.055c-.051-.058-.059-.168-.023-.238.011-.023.058-.054.097-.066.043-.016.211-.028.375-.028h.305V9h-.613l-.082-.035-.078-.031-.055-.18.008-.82.007-.817.067-.058.066-.055h.68l-.008-.207-.004-.203-.679-.016-.11-.101v-.176l.063-.047.062-.051h.676l-.008-.508-.004-.511-.566-.012a13.683 13.683 0 0 1-.571-.02.624.624 0 0 1-.039-.086l-.035-.082.024-.054a.239.239 0 0 1 .074-.098l.055-.035h1.308l.137.137v.871h9.348l.164.039c.191.043.39.156.558.32l.125.121.094.192.094.187.019.176c.032.23.032 3.691 0 3.922l-.019.176-.188.382-.152.141a1.26 1.26 0 0 1-.574.309 4.448 4.448 0 0 1-.489.023h-.363v1.273l-.066.071-.071.066h-1.714l-.067-.055-.066-.058-.004-.649-.008-.648h-.82v1.289l-.047.055-.043.054-2.277.008-2.282.004-.066-.055-.067-.058-.003-.649-.008-.648H4.586v1.273l-.07.071c-.071.07-.118.078-.204.043zm2.293-.618.012-.253.055-.047a.234.234 0 0 1 .121-.043c.035 0 .09.019.121.043l.055.047.023.507.207.008.203.004v-.223c0-.226.02-.304.094-.359.055-.043.152-.035.219.02l.062.046.008.254.008.25.203.008.207.004v-.465l.059-.074.062-.07h.067a.23.23 0 0 1 .132.054l.067.055.015.5h.391l.008-.25.008-.246.066-.059a.223.223 0 0 1 .121-.054c.031 0 .086.023.125.054l.063.059.008.246.011.25h.606v-1.035H5.996v1.035l.297-.004.301-.008zm5.407.016.008-.246.066-.059a.223.223 0 0 1 .121-.054c.031 0 .086.023.121.054l.067.059.007.25.008.246.203-.004.203-.008v-1.011l-.605-.004-.602-.008v1.035h.395zm-7.801-1.371v-.609h-.426v1.218h.426zm3.492-.258a2.7 2.7 0 0 0 .359-.117c.34-.144.68-.414.907-.719.191-.25.347-.609.41-.941l.027-.149-.011-.324-.012-.32-.051-.168a2.987 2.987 0 0 0-.34-.703 2.492 2.492 0 0 0-.953-.754 3.303 3.303 0 0 0-.348-.109l-.207-.051h-.586l-.207.054a2.524 2.524 0 0 0-.746.332c-.082.055-.23.18-.328.282a2.204 2.204 0 0 0-.601 1.183l-.036.215.024.516.062.211a2.215 2.215 0 0 0 2.219 1.621 2.63 2.63 0 0 0 .418-.059Zm-.73-.429a1.215 1.215 0 0 1-.207-.532l-.028-.179.032-.133a.472.472 0 0 1 .046-.149c.036-.019.211.082.211.121 0 .02.035.11.078.196l.075.152.152.156c.086.082.219.188.301.235a.702.702 0 0 1 .144.093c.004.04-.402.118-.613.118h-.133Zm-.703-.192c-.161-.098-.375-.273-.426-.355l-.039-.063.027-.121c.035-.148.141-.367.234-.488.075-.09.293-.254.34-.254.012 0 .039.043.063.094l.039.089-.031.043a1.116 1.116 0 0 0-.129.415l-.028.167.028.184c.011.102.039.227.058.277.016.051.024.094.016.094-.012 0-.078-.039-.152-.082zm1.902-.168c-.281-.066-.586-.285-.692-.492l-.046-.09.093-.043.09-.043.086.047c.293.145.66.156 1.07.031l.043-.011-.074.14a1.824 1.824 0 0 1-.238.321c-.09.097-.172.175-.18.175-.008 0-.078-.015-.152-.035Zm-2.715-.953-.051-.219.004-.187.008-.188.113-.078c.231-.152.598-.219.844-.148l.109.031-.043.094-.039.097-.121.039c-.269.094-.523.325-.691.625l-.082.157Zm2.539 0c-.043-.012-.074-.027-.074-.039 0-.008.016-.051.031-.094l.027-.078.125-.043c.071-.027.176-.078.243-.121a1.71 1.71 0 0 0 .457-.5c.035-.07.074-.125.082-.117.047.027.121.535.101.68l-.015.097-.125.078a2.115 2.115 0 0 1-.27.121l-.144.043-.18-.004c-.102 0-.215-.011-.258-.023Zm-.945-.047a.445.445 0 0 1-.203-.187.543.543 0 0 1-.032-.18v-.117l.055-.078a.525.525 0 0 1 .133-.133l.078-.051h.215l.094.051.093.055.055.101a.566.566 0 0 1 .051.18.457.457 0 0 1-.055.176l-.055.105-.089.051-.094.055h-.094a.515.515 0 0 1-.152-.028Zm.879-.695-.035-.086.062-.133c.031-.074.07-.195.082-.273a1.566 1.566 0 0 0-.043-.657l-.047-.148.074.039c.125.063.348.231.457.344l.106.105-.016.114a1.307 1.307 0 0 1-.265.546c-.082.094-.274.239-.317.239-.011 0-.035-.039-.058-.09ZM6.711 8.07a1.106 1.106 0 0 0-.195-.082l-.149-.047h-.219c-.187 0-.277.016-.527.086l-.059.016.071-.117c.097-.168.273-.391.367-.461l.082-.063.137.036c.199.05.367.136.504.261.105.098.254.305.23.324a1.525 1.525 0 0 1-.191.082c-.004 0-.024-.015-.051-.035Zm.758-.027-.082-.035-.032-.106c-.066-.238-.351-.562-.617-.699a.512.512 0 0 1-.133-.086c0-.008.043-.027.098-.039.184-.051.352-.074.512-.074h.16l.07.109c.106.168.172.352.188.528.015.175-.008.351-.047.402l-.031.035Zm5.054 2.906a2.53 2.53 0 0 0 .797-.375c.399-.293.688-.715.828-1.215l.055-.183v-.75l-.055-.188a2.473 2.473 0 0 0-.332-.707 2.636 2.636 0 0 0-.55-.551 2.804 2.804 0 0 0-.711-.324l-.231-.058h-.656l-.188.05a2.272 2.272 0 0 0-1.3.918c-.168.25-.278.508-.336.786l-.043.214v.243c0 .132.015.32.035.421.109.516.422 1.016.84 1.336.082.059.25.161.379.219a2 2 0 0 0 1.047.219c.125-.004.316-.031.421-.055zm-.722-.406c-.071-.078-.164-.281-.207-.445l-.039-.145.011-.156a1.02 1.02 0 0 1 .039-.215l.024-.062.094.035.093.039.039.113c.086.258.325.531.602.688a.635.635 0 0 1 .137.085c0 .04-.403.118-.614.118h-.128zm-.793-.262c-.211-.144-.387-.316-.387-.386a1.315 1.315 0 0 1 .344-.688c.07-.062.219-.16.25-.16.008 0 .035.039.058.082l.043.086-.062.133c-.07.144-.117.351-.117.519.004.094.035.285.082.477.011.035.008.066 0 .066a2.075 2.075 0 0 1-.211-.129zm2.008-.109a1.491 1.491 0 0 1-.543-.277 1.059 1.059 0 0 1-.168-.207l-.063-.118.094-.039.094-.035.16.074.156.075h.613l.125-.043c.067-.024.129-.04.133-.032a.542.542 0 0 1-.078.153c-.094.156-.312.414-.375.445a.343.343 0 0 1-.148.004zm-2.739-.906-.043-.137v-.516l.11-.074c.062-.043.183-.098.269-.129l.153-.051h.168c.164 0 .343.039.343.075a.5.5 0 0 1-.035.105c-.019.047-.051.086-.07.086a.732.732 0 0 0-.195.074l-.153.071-.168.168c-.09.093-.203.234-.25.316l-.086.152Zm2.524-.059c-.035-.012-.067-.031-.067-.043a.5.5 0 0 1 .036-.098l.035-.082.097-.031c.282-.082.559-.336.731-.664l.058-.109.043.132c.02.075.043.254.051.399l.012.262-.098.07c-.054.039-.16.098-.234.125l-.129.051-.238.008a1.11 1.11 0 0 1-.297-.02Zm-.934-.047a.461.461 0 0 1-.238-.262.38.38 0 0 1 .187-.433l.09-.051h.199l.094.051a.386.386 0 0 1 .188.433.472.472 0 0 1-.246.266.442.442 0 0 1-.274-.004Zm.871-.695-.047-.09.036-.043a1.48 1.48 0 0 0 .085-.199l.051-.156-.004-.247v-.246l-.047-.16-.046-.156.109.062c.145.082.32.219.434.336l.093.094-.027.133c-.059.273-.234.547-.441.687a.753.753 0 0 1-.133.075c-.008 0-.039-.043-.063-.09zm-1.215-.391a1.178 1.178 0 0 0-.191-.082l-.144-.051-.231.004h-.23l-.165.043a1.166 1.166 0 0 1-.167.039.73.73 0 0 1 .082-.152c.089-.152.304-.41.378-.449l.043-.024.133.036c.176.046.379.152.508.265a.95.95 0 0 1 .168.211l.066.117-.066.024c-.035.011-.078.031-.098.039-.019.008-.058 0-.086-.02zm.762-.031-.086-.035-.047-.133a1.292 1.292 0 0 0-.125-.246 1.528 1.528 0 0 0-.48-.43.411.411 0 0 1-.125-.082c0-.008.043-.027.098-.039.175-.051.347-.074.5-.074h.144l.047.051c.07.078.168.277.207.433.02.074.035.188.035.25 0 .117-.039.317-.066.332a.277.277 0 0 1-.102-.027Zm-8.082-.047-.004-.605-.207-.008-.207-.004v1.223h.426z" style="fill:#1a1a1a;fill-opacity:1;fill-rule:nonzero;stroke:none" transform="scale(1.33333)"/></svg>

<?xml version="1.0" encoding="UTF-8" standalone="no"?>
<svg
   width="24"
   height="24"
   viewBox="0 0 24 24"
   fill="none"
   version="1.1"
   id="svg154"
   sodipodi:docname="app.svg"
   inkscape:version="1.2.2 (b0a8486541, 2022-12-01)"
   xml:space="preserve"
   inkscape:export-filename="../../../../svg/ventoy.pdf"
   inkscape:export-xdpi="96"
   inkscape:export-ydpi="96"
   xmlns:inkscape="http://www.inkscape.org/namespaces/inkscape"
   xmlns:sodipodi="http://sodipodi.sourceforge.net/DTD/sodipodi-0.dtd"
   xmlns="http://www.w3.org/2000/svg"
   xmlns:svg="http://www.w3.org/2000/svg"><sodipodi:namedview
     id="namedview156"
     pagecolor="#ffffff"
     bordercolor="#000000"
     borderopacity="1"
     inkscape:showpageshadow="0"
     inkscape:pageopacity="1"
     inkscape:pagecheckerboard="false"
     inkscape:deskcolor="#ffffff"
     showgrid="true"
     inkscape:zoom="32"
     inkscape:cx="9.609375"
     inkscape:cy="15.453125"
     inkscape:window-width="1920"
     inkscape:window-height="1052"
     inkscape:window-x="0"
     inkscape:window-y="0"
     inkscape:window-maximized="1"
     inkscape:current-layer="svg154"
     showguides="true"
     guidecolor="#ff0000"
     guideopacity="1"
     inkscape:lockguides="true"
     showborder="true"
     borderlayer="true"><inkscape:grid
       type="xygrid"
       id="grid356"
       color="#000000"
       opacity="0.10196078"
       empcolor="#000000"
       empopacity="0.10196078"
       snapvisiblegridlinesonly="true"
       enabled="true"
       visible="true"
       dotted="false"
       originx="-34"
       originy="0"
       spacingy="1"
       spacingx="1"
       units="px" /><sodipodi:guide
       position="4,12"
       orientation="-1,0"
       id="guide764"
       inkscape:locked="true"
       inkscape:label="left-circle"
       inkscape:color="rgb(255,0,0)" /><sodipodi:guide
       position="5,12"
       orientation="-1,0"
       id="guide2218"
       inkscape:locked="true"
       inkscape:label="left-square"
       inkscape:color="rgb(255,0,0)" /><sodipodi:guide
       position="12,20"
       orientation="0,1"
       id="guide2220"
       inkscape:locked="true"
       inkscape:label="top-circle"
       inkscape:color="rgb(255,0,0)" /><sodipodi:guide
       position="12,5"
       orientation="0,1"
       id="guide2222"
       inkscape:locked="true"
       inkscape:label="bottom-square"
       inkscape:color="rgb(255,0,0)" /><sodipodi:guide
       position="12,4"
       orientation="0,1"
       id="guide2224"
       inkscape:locked="true"
       inkscape:label="bottom-circle"
       inkscape:color="rgb(255,0,0)" /><sodipodi:guide
       position="19,12"
       orientation="-1,0"
       id="guide2226"
       inkscape:locked="true"
       inkscape:label="right-square"
       inkscape:color="rgb(255,0,0)" /><sodipodi:guide
       position="20,12"
       orientation="-1,0"
       id="guide2228"
       inkscape:locked="true"
       inkscape:label="right-circle"
       inkscape:color="rgb(255,0,0)" /><sodipodi:guide
       position="12,19"
       orientation="0,1"
       id="guide2230"
       inkscape:locked="true"
       inkscape:label="top-square"
       inkscape:color="rgb(255,0,0)" /><sodipodi:guide
       position="12,12"
       orientation="1,0"
       id="guide765"
       inkscape:locked="true" /><sodipodi:guide
       position="12,12"
       orientation="0,-1"
       id="guide767"
       inkscape:locked="true" /><sodipodi:guide
       position="12,12"
       orientation="0.70710678,0.70710678"
       id="guide2266"
       inkscape:locked="true"
       inkscape:label=""
       inkscape:color="rgb(255,0,0)" /><sodipodi:guide
       position="12,12"
       orientation="-0.70710678,0.70710678"
       id="guide2994"
       inkscape:locked="true"
       inkscape:label=""
       inkscape:color="rgb(255,0,0)" /><sodipodi:guide
       position="3,12"
       orientation="-1,0"
       id="guide131543"
       inkscape:locked="true"
       inkscape:label="left-horizontal"
       inkscape:color="rgb(255,0,0)" /><sodipodi:guide
       position="12,21"
       orientation="0,1"
       id="guide131545"
       inkscape:locked="true"
       inkscape:label="top-vertical"
       inkscape:color="rgb(255,0,0)" /><sodipodi:guide
       position="21,12"
       orientation="-1,0"
       id="guide131547"
       inkscape:locked="true"
       inkscape:label="right-horizontal"
       inkscape:color="rgb(255,0,0)" /><sodipodi:guide
       position="12,3"
       orientation="0,1"
       id="guide131549"
       inkscape:locked="true"
       inkscape:label="bottom-vertical"
       inkscape:color="rgb(255,0,0)" /></sodipodi:namedview><defs
     id="defs152"><radialGradient
       fx="0.179115"
       fy="-1.748343"
       cx="0.179115"
       cy="-1.748343"
       r="1"
       gradientUnits="userSpaceOnUse"
       gradientTransform="matrix(0.232021,20.32265,-16.500173,0.18838,-19.890763,-2.571644)"
       spreadMethod="pad"
       id="radialGradient2"><stop
         style="stop-opacity:1;stop-color:#80b3ff"
         offset="0"
         id="stop1" /><stop
         style="stop-opacity:1;stop-color:#003380"
         offset="1"
         id="stop2" /></radialGradient><radialGradient
       fx="0.179115"
       fy="-1.748343"
       cx="0.179115"
       cy="-1.748343"
       r="1"
       gradientUnits="userSpaceOnUse"
       gradientTransform="matrix(0.232021,20.32265,-16.500173,0.18838,-19.890763,-2.571644)"
       spreadMethod="pad"
       id="radialGradient4"><stop
         style="stop-opacity:1;stop-color:#d5ffe6"
         offset="0"
         id="stop3" /><stop
         style="stop-opacity:1;stop-color:#00d455"
         offset="1"
         id="stop4" /></radialGradient></defs><g
     id="g1"
     inkscape:groupmode="layer"
     inkscape:label="1"><path
       id="path2"
       d="M 9,0.75 C 1.5,0.75 0.75,4.5 0.75,9 0.75,15 3,17.25 9,17.25 15,17.25 17.25,15 17.25,9 17.25,4.5 16.5,0.75 9,0.75 Z"
       transform="scale(1.3333333)"
       style="fill:url(#radialGradient2);stroke:none" /><path
       id="path4"
       d="M 9,0.75 C 1.5,0.75 0.75,4.5 0.75,9 0.75,15 3,17.25 9,17.25 15,17.25 17.25,15 17.25,9 17.25,4.5 16.5,0.75 9,0.75 Z"
       transform="scale(1.3333333)"
       style="fill:url(#radialGradient4);stroke:none" /><path
       id="path5"
       d="M 4.312,13.18 C 4.281,13.168 4.25,13.137 4.234,13.113 L 4.211,13.066 V 12.195 H 3.512 L 3.457,12.133 3.398,12.074 3.391,11.293 c -0.004,-0.43 0,-0.82 0.007,-0.875 0.008,-0.055 0.028,-0.117 0.047,-0.141 L 3.477,10.234 3.836,10.223 4.199,10.211 4.203,10.004 4.211,9.801 3.5,9.785 3.457,9.73 C 3.406,9.672 3.398,9.562 3.434,9.492 3.445,9.469 3.492,9.438 3.531,9.426 3.574,9.41 3.742,9.398 3.906,9.398 H 4.211 V 9 H 3.598 L 3.516,8.965 3.438,8.934 3.383,8.754 3.391,7.934 3.398,7.117 3.465,7.059 3.531,7.004 h 0.68 L 4.203,6.797 4.199,6.594 3.52,6.578 3.41,6.477 V 6.301 L 3.473,6.254 3.535,6.203 H 4.211 L 4.203,5.695 4.199,5.184 3.633,5.172 C 3.324,5.164 3.066,5.156 3.062,5.152 3.059,5.148 3.039,5.109 3.023,5.066 L 2.988,4.984 3.012,4.93 C 3.023,4.898 3.055,4.855 3.086,4.832 L 3.141,4.797 h 1.308 l 0.137,0.137 v 0.871 h 9.348 l 0.164,0.039 c 0.191,0.043 0.39,0.156 0.558,0.32 l 0.125,0.121 0.094,0.192 0.094,0.187 0.019,0.176 c 0.032,0.23 0.032,3.691 0,3.922 l -0.019,0.176 -0.188,0.382 -0.152,0.141 c -0.168,0.156 -0.375,0.266 -0.574,0.309 -0.067,0.011 -0.289,0.023 -0.489,0.023 h -0.363 v 1.273 l -0.066,0.071 -0.071,0.066 H 11.352 L 11.285,13.148 11.219,13.09 11.215,12.441 11.207,11.793 h -0.82 v 1.289 L 10.34,13.137 10.297,13.191 8.02,13.199 5.738,13.203 5.672,13.148 5.605,13.09 5.602,12.441 5.594,11.793 H 4.586 v 1.273 l -0.07,0.071 c -0.071,0.07 -0.118,0.078 -0.204,0.043 z m 2.293,-0.618 0.012,-0.253 0.055,-0.047 c 0.031,-0.024 0.086,-0.043 0.121,-0.043 0.035,0 0.09,0.019 0.121,0.043 l 0.055,0.047 0.023,0.507 0.207,0.008 0.203,0.004 v -0.223 c 0,-0.226 0.02,-0.304 0.094,-0.359 0.055,-0.043 0.152,-0.035 0.219,0.02 l 0.062,0.046 0.008,0.254 0.008,0.25 0.203,0.008 0.207,0.004 v -0.465 l 0.059,-0.074 0.062,-0.07 h 0.067 c 0.039,0 0.097,0.023 0.132,0.054 l 0.067,0.055 0.015,0.5 h 0.391 l 0.008,-0.25 0.008,-0.246 0.066,-0.059 c 0.035,-0.031 0.09,-0.054 0.121,-0.054 0.031,0 0.086,0.023 0.125,0.054 l 0.063,0.059 0.008,0.246 0.011,0.25 h 0.606 V 11.793 H 5.996 v 1.035 l 0.297,-0.004 0.301,-0.008 z m 5.407,0.016 0.008,-0.246 0.066,-0.059 c 0.035,-0.031 0.09,-0.054 0.121,-0.054 0.031,0 0.086,0.023 0.121,0.054 l 0.067,0.059 0.007,0.25 0.008,0.246 0.203,-0.004 0.203,-0.008 v -1.011 l -0.605,-0.004 -0.602,-0.008 v 1.035 h 0.395 z M 4.211,11.207 V 10.598 H 3.785 v 1.218 h 0.426 z m 3.492,-0.258 c 0.109,-0.027 0.27,-0.078 0.359,-0.117 0.34,-0.144 0.68,-0.414 0.907,-0.719 C 9.16,9.863 9.316,9.504 9.379,9.172 L 9.406,9.023 9.395,8.699 9.383,8.379 9.332,8.211 C 9.266,7.996 9.117,7.688 8.992,7.508 8.773,7.207 8.379,6.895 8.039,6.754 7.961,6.723 7.801,6.672 7.691,6.645 L 7.484,6.594 H 6.898 L 6.691,6.648 C 6.449,6.707 6.16,6.836 5.945,6.98 5.863,7.035 5.715,7.16 5.617,7.262 5.305,7.574 5.098,7.984 5.016,8.445 L 4.98,8.66 5.004,9.176 5.066,9.387 c 0.149,0.511 0.461,0.949 0.883,1.234 0.399,0.27 0.875,0.41 1.336,0.387 C 7.41,11 7.598,10.977 7.703,10.949 Z M 6.973,10.52 C 6.875,10.395 6.793,10.18 6.766,9.988 L 6.738,9.809 6.77,9.676 C 6.785,9.602 6.805,9.535 6.816,9.527 6.852,9.508 7.027,9.609 7.027,9.648 c 0,0.02 0.035,0.11 0.078,0.196 l 0.075,0.152 0.152,0.156 c 0.086,0.082 0.219,0.188 0.301,0.235 0.078,0.043 0.144,0.086 0.144,0.093 0.004,0.04 -0.402,0.118 -0.613,0.118 H 7.031 Z M 6.27,10.328 C 6.109,10.23 5.895,10.055 5.844,9.973 L 5.805,9.91 5.832,9.789 C 5.867,9.641 5.973,9.422 6.066,9.301 6.141,9.211 6.359,9.047 6.406,9.047 c 0.012,0 0.039,0.043 0.063,0.094 L 6.508,9.23 6.477,9.273 C 6.422,9.355 6.371,9.52 6.348,9.688 L 6.32,9.855 6.348,10.039 c 0.011,0.102 0.039,0.227 0.058,0.277 0.016,0.051 0.024,0.094 0.016,0.094 -0.012,0 -0.078,-0.039 -0.152,-0.082 z M 8.172,10.16 C 7.891,10.094 7.586,9.875 7.48,9.668 L 7.434,9.578 7.527,9.535 7.617,9.492 7.703,9.539 c 0.293,0.145 0.66,0.156 1.07,0.031 L 8.816,9.559 8.742,9.699 C 8.703,9.777 8.594,9.922 8.504,10.02 8.414,10.117 8.332,10.195 8.324,10.195 8.316,10.195 8.246,10.18 8.172,10.16 Z M 5.457,9.207 5.406,8.988 5.41,8.801 5.418,8.613 5.531,8.535 C 5.762,8.383 6.129,8.316 6.375,8.387 L 6.484,8.418 6.441,8.512 6.402,8.609 6.281,8.648 C 6.012,8.742 5.758,8.973 5.59,9.273 L 5.508,9.43 Z m 2.539,0 C 7.953,9.195 7.922,9.18 7.922,9.168 7.922,9.16 7.938,9.117 7.953,9.074 L 7.98,8.996 8.105,8.953 C 8.176,8.926 8.281,8.875 8.348,8.832 8.496,8.738 8.719,8.492 8.805,8.332 8.84,8.262 8.879,8.207 8.887,8.215 8.934,8.242 9.008,8.75 8.988,8.895 L 8.973,8.992 8.848,9.07 C 8.777,9.109 8.656,9.164 8.578,9.191 L 8.434,9.234 8.254,9.23 C 8.152,9.23 8.039,9.219 7.996,9.207 Z M 7.051,9.16 C 6.977,9.133 6.891,9.051 6.848,8.973 6.832,8.938 6.816,8.855 6.816,8.793 V 8.676 L 6.871,8.598 C 6.898,8.555 6.957,8.496 7.004,8.465 L 7.082,8.414 H 7.297 L 7.391,8.465 7.484,8.52 7.539,8.621 C 7.566,8.68 7.59,8.762 7.59,8.801 7.59,8.84 7.566,8.922 7.535,8.977 L 7.48,9.082 7.391,9.133 7.297,9.188 H 7.203 C 7.152,9.184 7.082,9.176 7.051,9.16 Z M 7.93,8.465 7.895,8.379 7.957,8.246 C 7.988,8.172 8.027,8.051 8.039,7.973 8.074,7.797 8.055,7.5 7.996,7.316 L 7.949,7.168 8.023,7.207 C 8.148,7.27 8.371,7.438 8.48,7.551 L 8.586,7.656 8.57,7.77 C 8.551,7.918 8.422,8.184 8.305,8.316 8.223,8.41 8.031,8.555 7.988,8.555 7.977,8.555 7.953,8.516 7.93,8.465 Z M 6.711,8.07 C 6.684,8.051 6.598,8.016 6.516,7.988 L 6.367,7.941 H 6.148 c -0.187,0 -0.277,0.016 -0.527,0.086 L 5.562,8.043 5.633,7.926 C 5.73,7.758 5.906,7.535 6,7.465 L 6.082,7.402 6.219,7.438 C 6.418,7.488 6.586,7.574 6.723,7.699 6.828,7.797 6.977,8.004 6.953,8.023 6.945,8.031 6.766,8.109 6.762,8.105 6.758,8.105 6.738,8.09 6.711,8.07 Z M 7.469,8.043 7.387,8.008 7.355,7.902 C 7.289,7.664 7.004,7.34 6.738,7.203 6.664,7.164 6.605,7.125 6.605,7.117 6.605,7.109 6.648,7.09 6.703,7.078 6.887,7.027 7.055,7.004 7.215,7.004 h 0.16 l 0.07,0.109 C 7.551,7.281 7.617,7.465 7.633,7.641 7.648,7.816 7.625,7.992 7.586,8.043 L 7.555,8.078 Z m 5.054,2.906 c 0.247,-0.058 0.59,-0.222 0.797,-0.375 0.399,-0.293 0.688,-0.715 0.828,-1.215 L 14.203,9.176 V 8.426 L 14.148,8.238 C 14.078,7.988 13.961,7.746 13.816,7.531 13.684,7.344 13.445,7.105 13.266,6.98 13.074,6.852 12.789,6.723 12.555,6.656 L 12.324,6.598 H 11.668 L 11.48,6.648 C 10.941,6.793 10.473,7.125 10.18,7.566 10.012,7.816 9.902,8.074 9.844,8.352 L 9.801,8.566 v 0.243 c 0,0.132 0.015,0.32 0.035,0.421 0.109,0.516 0.422,1.016 0.84,1.336 0.082,0.059 0.25,0.161 0.379,0.219 0.367,0.176 0.664,0.238 1.047,0.219 0.125,-0.004 0.316,-0.031 0.421,-0.055 z M 11.801,10.543 C 11.73,10.465 11.637,10.262 11.594,10.098 L 11.555,9.953 11.566,9.797 c 0.008,-0.082 0.024,-0.18 0.039,-0.215 l 0.024,-0.062 0.094,0.035 0.093,0.039 0.039,0.113 c 0.086,0.258 0.325,0.531 0.602,0.688 0.074,0.039 0.137,0.078 0.137,0.085 0,0.04 -0.403,0.118 -0.614,0.118 h -0.128 z m -0.793,-0.262 c -0.211,-0.144 -0.387,-0.316 -0.387,-0.386 0,-0.024 0.02,-0.114 0.047,-0.196 0.051,-0.164 0.187,-0.394 0.297,-0.492 0.07,-0.062 0.219,-0.16 0.25,-0.16 0.008,0 0.035,0.039 0.058,0.082 l 0.043,0.086 -0.062,0.133 c -0.07,0.144 -0.117,0.351 -0.117,0.519 0.004,0.094 0.035,0.285 0.082,0.477 0.011,0.035 0.008,0.066 0,0.066 -0.012,-0.004 -0.106,-0.058 -0.211,-0.129 z m 2.008,-0.109 C 12.871,10.145 12.602,10.008 12.473,9.895 12.418,9.844 12.34,9.75 12.305,9.688 L 12.242,9.57 12.336,9.531 12.43,9.496 12.59,9.57 12.746,9.645 h 0.613 l 0.125,-0.043 c 0.067,-0.024 0.129,-0.04 0.133,-0.032 0.004,0.004 -0.027,0.075 -0.078,0.153 -0.094,0.156 -0.312,0.414 -0.375,0.445 -0.023,0.012 -0.09,0.012 -0.148,0.004 z M 10.277,9.266 10.234,9.129 V 8.613 l 0.11,-0.074 C 10.406,8.496 10.527,8.441 10.613,8.41 l 0.153,-0.051 h 0.168 c 0.164,0 0.343,0.039 0.343,0.075 0,0.011 -0.015,0.058 -0.035,0.105 -0.019,0.047 -0.051,0.086 -0.07,0.086 -0.024,0 -0.11,0.031 -0.195,0.074 L 10.824,8.77 10.656,8.938 c -0.09,0.093 -0.203,0.234 -0.25,0.316 L 10.32,9.406 Z M 12.801,9.207 C 12.766,9.195 12.734,9.176 12.734,9.164 c 0,-0.008 0.016,-0.055 0.036,-0.098 l 0.035,-0.082 0.097,-0.031 c 0.282,-0.082 0.559,-0.336 0.731,-0.664 l 0.058,-0.109 0.043,0.132 c 0.02,0.075 0.043,0.254 0.051,0.399 l 0.012,0.262 -0.098,0.07 c -0.054,0.039 -0.16,0.098 -0.234,0.125 L 13.336,9.219 13.098,9.227 C 12.969,9.23 12.836,9.223 12.801,9.207 Z M 11.867,9.16 C 11.77,9.125 11.656,8.996 11.629,8.898 11.582,8.73 11.66,8.551 11.816,8.465 l 0.09,-0.051 h 0.199 l 0.094,0.051 C 12.355,8.551 12.43,8.73 12.387,8.898 12.359,9 12.242,9.125 12.141,9.164 12.059,9.191 11.945,9.191 11.867,9.16 Z M 12.738,8.465 12.691,8.375 12.727,8.332 C 12.742,8.309 12.781,8.219 12.812,8.133 L 12.863,7.977 12.859,7.73 V 7.484 L 12.812,7.324 12.766,7.168 12.875,7.23 c 0.145,0.082 0.32,0.219 0.434,0.336 l 0.093,0.094 -0.027,0.133 c -0.059,0.273 -0.234,0.547 -0.441,0.687 -0.063,0.04 -0.122,0.075 -0.133,0.075 -0.008,0 -0.039,-0.043 -0.063,-0.09 z M 11.523,8.074 C 11.496,8.055 11.41,8.02 11.332,7.992 L 11.188,7.941 10.957,7.945 h -0.23 l -0.165,0.043 c -0.089,0.024 -0.167,0.043 -0.167,0.039 -0.004,-0.004 0.031,-0.07 0.082,-0.152 0.089,-0.152 0.304,-0.41 0.378,-0.449 l 0.043,-0.024 0.133,0.036 c 0.176,0.046 0.379,0.152 0.508,0.265 0.059,0.051 0.133,0.149 0.168,0.211 l 0.066,0.117 -0.066,0.024 c -0.035,0.011 -0.078,0.031 -0.098,0.039 -0.019,0.008 -0.058,0 -0.086,-0.02 z M 12.285,8.043 12.199,8.008 12.152,7.875 C 12.125,7.801 12.07,7.691 12.027,7.629 11.934,7.484 11.707,7.281 11.547,7.199 11.477,7.164 11.422,7.125 11.422,7.117 c 0,-0.008 0.043,-0.027 0.098,-0.039 0.175,-0.051 0.347,-0.074 0.5,-0.074 h 0.144 l 0.047,0.051 c 0.07,0.078 0.168,0.277 0.207,0.433 0.02,0.074 0.035,0.188 0.035,0.25 0,0.117 -0.039,0.317 -0.066,0.332 C 12.379,8.074 12.332,8.062 12.285,8.043 Z M 4.203,7.996 4.199,7.391 3.992,7.383 3.785,7.379 v 1.223 h 0.426 z"
       style="fill:#1a1a1a;fill-opacity:1;fill-rule:nonzero;stroke:none"
       transform="scale(1.3333333)" /></g></svg>
